christians-website/frontend/static/images/socialmedia/instagramIcon.svg

<svg height="143" viewBox="0 0 143 143" width="143" xmlns="http://www.w3.org/2000/svg"><path d="m203.685452 1331h60.905286c23.762168 0 42.409262 14.47044 42.409262 45.22164v50.91732c0 29.96919-19.629398 46.86104-42.409262 46.86104-17.078923 0-46.550022 0-60.905286 0-32.034169 0-39.685452-25.46473-39.685452-46.86104 0-19.56858 0-40.95449 0-50.91732 0-24.10859 12.82007-45.22164 39.685452-45.22164zm5.784463 13c-21.980767 0-32.469915 17.27431-32.469915 36.99953v41.65962c0 17.50607 6.260141 38.34085 32.469915 38.34085h49.831598c18.638071 0 34.698487-13.82061 34.698487-38.34085 0-10.31271 0-23.81259 0-41.65962 0-25.16008-15.256714-36.99953-34.698487-36.99953-12.892677 0-36.995711 0-49.831598 0zm25.530085 96c-20.434536 0-37-16.56546-37-37s16.565464-37 37-37 37 16.56546 37 37-16.565464 37-37 37zm.5-12c13.530976 0 24.5-10.96902 24.5-24.5s-10.969024-24.5-24.5-24.5-24.5 10.96902-24.5 24.5 10.969024 24.5 24.5 24.5zm37.5-54c-4.970563 0-9-4.02944-9-9s4.029437-9 9-9 9 4.02944 9 9-4.029437 9-9 9z" fill="#fff" transform="translate(-164 -1331)"/></svg>

<?xml version="1.0" encoding="UTF-8"?>
<svg width="143px" height="143px" viewBox="0 0 143 143" version="1.1" xmlns="http://www.w3.org/2000/svg" xmlns:xlink="http://www.w3.org/1999/xlink">
    <!-- Generator: Sketch 53.2 (72643) - https://sketchapp.com -->
    <title>instagramIcon</title>
    <desc>Created with Sketch.</desc>
    <g id="Page-1" stroke="none" stroke-width="1" fill="none" fill-rule="evenodd">
        <g id="Group-18" transform="translate(-164.000000, -1331.000000)" fill="#FFFFFF" fill-rule="nonzero">
            <path d="M203.685452,1331 C219.373758,1331 248.833022,1331 264.590738,1331 C288.352906,1331 307,1345.47044 307,1376.22164 C307,1398.03468 307,1414.53454 307,1427.13896 C307,1457.10815 287.370602,1474 264.590738,1474 C247.511815,1474 218.040716,1474 203.685452,1474 C171.651283,1474 164,1448.53527 164,1427.13896 C164,1407.57038 164,1386.18447 164,1376.22164 C164,1352.11305 176.82007,1331 203.685452,1331 Z M209.469915,1344 C187.489148,1344 177,1361.27431 177,1380.99953 C177,1389.15093 177,1406.64849 177,1422.65915 C177,1440.16522 183.260141,1461 209.469915,1461 C221.215131,1461 245.327849,1461 259.301513,1461 C277.939584,1461 294,1447.17939 294,1422.65915 C294,1412.34644 294,1398.84656 294,1380.99953 C294,1355.83945 278.743286,1344 259.301513,1344 C246.408836,1344 222.305802,1344 209.469915,1344 Z M235,1440 C214.565464,1440 198,1423.43454 198,1403 C198,1382.56546 214.565464,1366 235,1366 C255.434536,1366 272,1382.56546 272,1403 C272,1423.43454 255.434536,1440 235,1440 Z M235.5,1428 C249.030976,1428 260,1417.03098 260,1403.5 C260,1389.96902 249.030976,1379 235.5,1379 C221.969024,1379 211,1389.96902 211,1403.5 C211,1417.03098 221.969024,1428 235.5,1428 Z M273,1374 C268.029437,1374 264,1369.97056 264,1365 C264,1360.02944 268.029437,1356 273,1356 C277.970563,1356 282,1360.02944 282,1365 C282,1369.97056 277.970563,1374 273,1374 Z" id="instagramIcon"></path>
        </g>
    </g>
</svg>
